static/images/onboarding/honest-illustration.svg

<svg width="360" height="360" viewBox="0 0 360 360" fill="none" xmlns="http://www.w3.org/2000/svg">
<path opacity="0.45" d="M282.546 288.243C303.803 283.489 319.718 273.753 318.095 266.498C316.472 259.242 297.925 257.215 276.669 261.97C255.413 266.724 239.497 276.46 241.12 283.715C242.743 290.971 261.29 292.998 282.546 288.243Z" fill="#9966FF"/>
<path opacity="0.45" fill-rule="evenodd" clip-rule="evenodd" d="M351.831 185.344C368.516 241.748 270.49 253.219 177.204 268.671C94.1566 282.511 6.46388 242.886 9.21316 185.344C11.7728 130.171 86.8567 67.415 180.522 81.0659C279.591 95.5699 335.43 130.171 351.831 185.344Z" fill="#9966FF"/>
<path d="M266.506 253.029C286.604 226.296 295.231 191.316 287.363 156.146C282.338 133.679 271.246 114.245 256.267 98.9826C228.585 70.8276 187.346 57.1767 146.012 66.3721C128.568 70.2588 112.831 77.8427 99.5582 88.0808C64.2915 115.288 45.9946 161.36 56.3281 207.621C61.163 229.235 71.5914 248.194 85.8118 263.172L266.506 253.029Z" fill="#575E75"/>
<path d="M249.822 256.347C250.675 255.494 251.433 254.641 252.192 253.788C274.565 228.761 284.994 193.686 277.03 158.326C270.489 129.223 252.761 105.524 229.439 90.7355C206.212 76.0418 177.298 70.1644 148.288 76.7054C144.211 77.6534 140.135 78.791 136.248 80.1181C85.2439 97.8453 54.5278 151.501 66.6626 205.441C71.7819 228.382 83.9167 247.91 100.223 262.414C102.498 264.5 104.963 266.396 107.428 268.292L249.822 256.347Z" fill="#E5F0FF"/>
<path d="M171.892 248.194C208.49 248.194 238.159 218.527 238.159 181.931C238.159 145.334 208.49 115.667 171.892 115.667C135.293 115.667 105.624 145.334 105.624 181.931C105.624 218.527 135.293 248.194 171.892 248.194Z" fill="#5CB1D6"/>
<path fill-rule="evenodd" clip-rule="evenodd" d="M97.7572 211.224L72.4448 204.209L91.4054 187.145L97.7572 211.224Z" fill="#5CB1D6"/>
<path fill-rule="evenodd" clip-rule="evenodd" d="M252.192 175.579L272.006 158.611L247.641 151.216L252.192 175.579Z" fill="#5CB1D6"/>
<path d="M166.583 189.514L134.065 156.714L176.822 173.399L166.583 189.514Z" fill="#E5F0FF"/>
<path d="M166.583 189.514L210.192 204.967L176.822 173.399L166.583 189.514Z" fill="#E5F0FF"/>
<path d="M174.168 190.084L116.717 194.823L169.997 171.503L174.168 190.084Z" fill="#E5F0FF"/>
<path d="M174.169 190.084L228.776 168.185L169.998 171.503L174.169 190.084Z" fill="#E5F0FF"/>
<path d="M162.794 182.879L185.452 240.516L181.375 178.708L162.794 182.879Z" fill="#E5F0FF"/>
<path d="M162.793 182.879L159.38 124.01L181.375 178.708L162.793 182.879Z" fill="#E5F0FF"/>
<path d="M180.802 186.292L196.255 142.779L164.686 176.148L180.802 186.292Z" fill="#E5F0FF"/>
<path d="M180.802 186.291L148 218.902L164.686 176.148L180.802 186.291Z" fill="#E5F0FF"/>
<path d="M163.265 186.007L135.867 107.609C135.678 106.946 136.531 106.472 136.91 107.135L180.804 177.949L163.265 186.007Z" fill="#E64D00"/>
<path d="M181.09 178.328L214.556 254.356C214.84 255.02 213.987 255.494 213.513 254.925L164.215 187.808L181.09 178.328Z" fill="#3373CC"/>
<path d="M172.463 196.245C179.845 196.245 185.83 190.261 185.83 182.878C185.83 175.496 179.845 169.512 172.463 169.512C165.08 169.512 159.096 175.496 159.096 182.878C159.096 190.261 165.08 196.245 172.463 196.245Z" fill="#FFBF00"/>
<path d="M142.219 231.605C144.628 231.605 146.58 229.653 146.58 227.244C146.58 224.836 144.628 222.884 142.219 222.884C139.811 222.884 137.858 224.836 137.858 227.244C137.858 229.653 139.811 231.605 142.219 231.605Z" fill="#E5F0FF"/>
<path d="M125.248 155.577C127.656 155.577 129.609 153.625 129.609 151.216C129.609 148.808 127.656 146.856 125.248 146.856C122.839 146.856 120.887 148.808 120.887 151.216C120.887 153.625 122.839 155.577 125.248 155.577Z" fill="#E5F0FF"/>
<path d="M202.703 138.229C205.111 138.229 207.064 136.277 207.064 133.868C207.064 131.46 205.111 129.508 202.703 129.508C200.294 129.508 198.342 131.46 198.342 133.868C198.342 136.277 200.294 138.229 202.703 138.229Z" fill="#E5F0FF"/>
<path d="M219.674 214.257C222.083 214.257 224.035 212.305 224.035 209.896C224.035 207.488 222.083 205.536 219.674 205.536C217.266 205.536 215.313 207.488 215.313 209.896C215.313 212.305 217.266 214.257 219.674 214.257Z" fill="#E5F0FF"/>
<path d="M107.332 268.292C107.332 268.292 131.033 272.842 154.829 271.136C178.624 269.429 213.322 262.793 213.322 262.793C213.322 262.793 247.546 257.105 249.821 256.347C252.096 255.683 107.332 268.292 107.332 268.292Z" fill="#E5F0FF"/>
<path fill-rule="evenodd" clip-rule="evenodd" d="M199.384 265.069L200.901 260.518L202.134 256.632L202.892 254.262L187.724 257.485L178.623 259.381L180.898 262.13L185.164 267.344L199.384 265.069Z" fill="#5CB1D6"/>
<path d="M107.332 268.292C107.332 268.292 100.885 263.173 100.127 262.414C99.3683 261.751 85.8115 263.267 85.8115 263.267C85.8115 263.267 99.5579 267.249 107.332 268.292Z" fill="#575E75"/>
<path d="M252.189 253.787L249.819 256.347C249.819 256.347 264.324 253.598 266.505 252.934L252.189 253.787Z" fill="#575E75"/>
<path fill-rule="evenodd" clip-rule="evenodd" d="M136.34 96.5177C139.279 105.713 151.603 110.737 154.257 110.169C157.007 109.6 166.013 99.7408 164.686 90.1663C164.686 89.8819 164.591 89.5027 164.496 89.2183C163.453 84.668 158.903 81.7292 154.352 82.772C151.982 83.246 150.086 84.668 148.949 86.5639C147.147 85.3316 144.777 84.8576 142.407 85.4264C137.857 86.4691 134.918 91.0194 135.961 95.5697C136.15 95.9489 136.245 96.2333 136.34 96.5177Z" fill="#ED5F87"/>
<path d="M160.515 89.3132C160.041 89.2184 159.662 88.8392 159.472 88.3652L159.188 87.3224C158.998 86.8484 158.335 86.8484 158.145 87.3224L157.861 88.46C157.766 88.934 157.387 89.3132 156.913 89.5028L155.87 89.7872C155.396 89.9768 155.396 90.6403 155.87 90.8299L157.008 91.0195C157.482 91.1143 157.861 91.4935 158.05 91.9675L158.335 93.0103C158.524 93.4843 159.188 93.4843 159.378 93.0103L159.662 91.8727C159.757 91.3987 160.136 91.0195 160.61 90.8299L161.653 90.5455C162.127 90.3559 162.127 89.6924 161.653 89.5028L160.515 89.3132Z" fill="white"/>
<path d="M66.3828 75.3778C64.8659 74.9986 63.7283 73.8611 63.2543 72.3443L62.3062 68.9316C61.8322 67.32 59.557 67.32 59.1778 68.9316L58.3245 72.3443C57.9453 73.8611 56.8077 74.9986 55.2908 75.4726L51.8779 76.4206C50.2663 76.8946 50.2663 79.1697 51.8779 79.5489L55.2908 80.4021C56.8077 80.7813 57.9453 81.9189 58.4193 83.4356L59.3674 86.8484C59.8414 88.4599 62.1166 88.4599 62.4959 86.8484L63.3491 83.4356C63.7283 81.9189 64.8659 80.7813 66.3828 80.3073L69.7957 79.3593C71.4073 78.8854 71.4073 76.6102 69.7957 76.231L66.3828 75.3778Z" fill="#CF63CF"/>
<path d="M330.977 174.536C328.986 174.062 327.469 172.451 326.9 170.46L325.668 165.91C325.099 163.824 322.065 163.824 321.496 165.91L320.359 170.46C319.885 172.451 318.273 173.968 316.282 174.536L311.732 175.769C309.646 176.338 309.646 179.371 311.732 179.94L316.282 181.078C318.273 181.552 319.79 183.163 320.359 185.154L321.591 189.704C322.16 191.79 325.194 191.79 325.763 189.704L326.9 185.154C327.374 183.163 328.986 181.646 330.977 181.078L335.527 179.845C337.613 179.276 337.613 176.243 335.527 175.674L330.977 174.536Z" fill="#CF63CF"/>
<path d="M15.4727 169.607C14.5247 169.322 13.7663 168.564 13.4818 167.616L12.913 165.436C12.6286 164.393 11.2066 164.393 10.9222 165.436L10.3534 167.616C10.0689 168.564 9.31052 169.322 8.36249 169.607L6.18203 170.176C5.13919 170.46 5.13919 171.882 6.18203 172.166L8.36249 172.735C9.31052 173.02 10.0689 173.778 10.3534 174.726L10.9222 176.906C11.2066 177.949 12.6286 177.949 12.913 176.906L13.4818 174.726C13.7663 173.778 14.5247 173.02 15.4727 172.735L17.6532 172.166C18.696 171.882 18.696 170.46 17.6532 170.176L15.4727 169.607Z" fill="#CF63CF"/>
</svg>

<svg width="360" height="360" fill="none" xmlns="http://www.w3.org/2000/svg"><path opacity=".45" d="M282.546 288.243c21.257-4.754 37.172-14.49 35.549-21.745-1.623-7.256-20.17-9.283-41.426-4.528-21.256 4.754-37.172 14.49-35.549 21.745 1.623 7.256 20.17 9.283 41.426 4.528Z" fill="#96F"/><path opacity=".45" fill-rule="evenodd" clip-rule="evenodd" d="M351.831 185.344c16.685 56.404-81.341 67.875-174.627 83.327-83.047 13.84-170.74-25.785-167.99-83.327 2.559-55.173 77.643-117.929 171.308-104.278C279.591 95.57 335.43 130.17 351.831 185.344Z" fill="#96F"/><path d="M266.506 253.029c20.098-26.733 28.725-61.713 20.857-96.883-5.025-22.467-16.117-41.901-31.096-57.163-27.682-28.155-68.921-41.806-110.255-32.61-17.444 3.886-33.181 11.47-46.454 21.708-35.267 27.207-53.563 73.279-43.23 119.54 4.835 21.614 15.263 40.573 29.484 55.551l180.694-10.143Z" fill="#575E75"/><path d="M249.822 256.347c.853-.853 1.611-1.706 2.37-2.559 22.373-25.027 32.802-60.102 24.838-95.462-6.541-29.103-24.269-52.802-47.591-67.59-23.227-14.694-52.141-20.572-81.151-14.03-4.077.947-8.153 2.085-12.04 3.412-51.004 17.727-81.72 71.383-69.585 125.323 5.119 22.941 17.254 42.469 33.56 56.973 2.275 2.086 4.74 3.982 7.205 5.878l142.394-11.945Z" fill="#E5F0FF"/><path d="M171.892 248.194c36.598 0 66.267-29.667 66.267-66.263 0-36.597-29.669-66.264-66.267-66.264-36.599 0-66.268 29.667-66.268 66.264 0 36.596 29.669 66.263 66.268 66.263Z" fill="#5CB1D6"/><path fill-rule="evenodd" clip-rule="evenodd" d="m97.757 211.224-25.312-7.015 18.96-17.064 6.352 24.079ZM252.192 175.579l19.814-16.968-24.365-7.395 4.551 24.363Z" fill="#5CB1D6"/><path d="m166.583 189.514-32.518-32.8 42.757 16.685-10.239 16.115ZM166.583 189.514l43.609 15.453-33.37-31.568-10.239 16.115Z" fill="#E5F0FF"/><path d="m174.168 190.084-57.451 4.739 53.28-23.32 4.171 18.581ZM174.169 190.084l54.607-21.899-58.778 3.318 4.171 18.581Z" fill="#E5F0FF"/><path d="m162.794 182.879 22.658 57.637-4.077-61.808-18.581 4.171ZM162.793 182.879l-3.413-58.869 21.995 54.698-18.582 4.171Z" fill="#E5F0FF"/><path d="m180.802 186.292 15.453-43.513-31.569 33.369 16.116 10.144Z" fill="#E5F0FF"/><path d="M180.802 186.291 148 218.902l16.686-42.754 16.116 10.143Z" fill="#E5F0FF"/><path d="m163.265 186.007-27.398-78.398c-.189-.663.664-1.137 1.043-.474l43.894 70.814-17.539 8.058Z" fill="#E64D00"/><path d="m181.09 178.328 33.466 76.028c.284.664-.569 1.138-1.043.569l-49.298-67.117 16.875-9.48Z" fill="#3373CC"/><path d="M172.463 196.245c7.382 0 13.367-5.984 13.367-13.367 0-7.382-5.985-13.366-13.367-13.366-7.383 0-13.367 5.984-13.367 13.366 0 7.383 5.984 13.367 13.367 13.367Z" fill="#FFBF00"/><path d="M142.219 231.605a4.36 4.36 0 1 0 .001-8.72 4.36 4.36 0 0 0-.001 8.72ZM125.248 155.577a4.361 4.361 0 1 0 0-8.722 4.361 4.361 0 0 0 0 8.722ZM202.703 138.229a4.361 4.361 0 1 0 0-8.722 4.361 4.361 0 0 0 0 8.722ZM219.674 214.257a4.36 4.36 0 1 0 .001-8.72 4.36 4.36 0 0 0-.001 8.72ZM107.332 268.292s23.701 4.55 47.497 2.844c23.795-1.707 58.493-8.343 58.493-8.343s34.224-5.688 36.499-6.446c2.275-.664-142.489 11.945-142.489 11.945Z" fill="#E5F0FF"/><path fill-rule="evenodd" clip-rule="evenodd" d="m199.384 265.069 1.517-4.551 1.233-3.886.758-2.37-15.168 3.223-9.101 1.896 2.275 2.749 4.266 5.214 14.22-2.275Z" fill="#5CB1D6"/><path d="M107.332 268.292s-6.447-5.119-7.205-5.878c-.759-.663-14.316.853-14.316.853s13.747 3.982 21.521 5.025ZM252.189 253.787l-2.37 2.56s14.505-2.749 16.686-3.413l-14.316.853Z" fill="#575E75"/><path fill-rule="evenodd" clip-rule="evenodd" d="M136.34 96.518c2.939 9.195 15.263 14.219 17.917 13.651 2.75-.569 11.756-10.428 10.429-20.003 0-.284-.095-.663-.19-.948-1.043-4.55-5.593-7.489-10.144-6.446a8.105 8.105 0 0 0-5.403 3.792c-1.802-1.232-4.172-1.706-6.542-1.138-4.55 1.043-7.489 5.593-6.446 10.144.189.379.284.663.379.948Z" fill="#ED5F87"/><path d="M160.515 89.313c-.474-.095-.853-.474-1.043-.948l-.284-1.043a.56.56 0 0 0-1.043 0l-.284 1.138c-.095.474-.474.853-.948 1.043l-1.043.284a.56.56 0 0 0 0 1.043l1.138.19c.474.094.853.474 1.042.948l.285 1.042a.56.56 0 0 0 1.043 0l.284-1.137c.095-.474.474-.854.948-1.043l1.043-.284a.56.56 0 0 0 0-1.043l-1.138-.19Z" fill="#fff"/><path d="M66.383 75.378c-1.517-.38-2.655-1.517-3.129-3.034l-.948-3.412c-.474-1.612-2.749-1.612-3.128 0l-.853 3.412c-.38 1.517-1.517 2.655-3.034 3.129l-3.413.948c-1.612.474-1.612 2.749 0 3.128l3.413.853c1.517.38 2.654 1.517 3.128 3.034l.948 3.412c.474 1.612 2.75 1.612 3.129 0l.853-3.412c.38-1.517 1.517-2.655 3.034-3.129l3.413-.948c1.611-.474 1.611-2.749 0-3.128l-3.413-.853ZM330.977 174.536c-1.991-.474-3.508-2.085-4.077-4.076l-1.232-4.55c-.569-2.086-3.603-2.086-4.172 0l-1.137 4.55c-.474 1.991-2.086 3.508-4.077 4.076l-4.55 1.233c-2.086.569-2.086 3.602 0 4.171l4.55 1.138c1.991.474 3.508 2.085 4.077 4.076l1.232 4.55c.569 2.086 3.603 2.086 4.172 0l1.137-4.55c.474-1.991 2.086-3.508 4.077-4.076l4.55-1.233c2.086-.569 2.086-3.602 0-4.171l-4.55-1.138ZM15.473 169.607a2.993 2.993 0 0 1-1.991-1.991l-.569-2.18a1.024 1.024 0 0 0-1.99 0l-.57 2.18a2.993 2.993 0 0 1-1.99 1.991l-2.181.569a1.024 1.024 0 0 0 0 1.99l2.18.569a2.993 2.993 0 0 1 1.991 1.991l.57 2.18a1.024 1.024 0 0 0 1.99 0l.569-2.18a2.993 2.993 0 0 1 1.99-1.991l2.181-.569a1.024 1.024 0 0 0 0-1.99l-2.18-.569Z" fill="#CF63CF"/></svg>
